images/3234010.svg

<?xml version="1.0" encoding="UTF-8"?>
<svg xmlns="http://www.w3.org/2000/svg" xmlns:xlink="http://www.w3.org/1999/xlink" width="300pt" height="300pt" viewBox="0 0 300 300" version="1.1">
<defs>
<g>
<symbol overflow="visible" id="glyph0-0">
<path style="stroke:none;" d="M 0.59375 2.125 L 0.59375 -8.46875 L 6.59375 -8.46875 L 6.59375 2.125 Z M 1.265625 1.453125 L 5.9375 1.453125 L 5.9375 -7.78125 L 1.265625 -7.78125 Z M 1.265625 1.453125 "/>
</symbol>
<symbol overflow="visible" id="glyph0-1">
<path style="stroke:none;" d="M 1.171875 -8.75 L 2.765625 -8.75 L 6.65625 -1.4375 L 6.65625 -8.75 L 7.796875 -8.75 L 7.796875 0 L 6.203125 0 L 2.328125 -7.3125 L 2.328125 0 L 1.171875 0 Z M 1.171875 -8.75 "/>
</symbol>
<symbol overflow="visible" id="glyph0-2">
<path style="stroke:none;" d="M 1.171875 -8.75 L 2.359375 -8.75 L 2.359375 -5.15625 L 6.65625 -5.15625 L 6.65625 -8.75 L 7.84375 -8.75 L 7.84375 0 L 6.65625 0 L 6.65625 -4.171875 L 2.359375 -4.171875 L 2.359375 0 L 1.171875 0 Z M 1.171875 -8.75 "/>
</symbol>
</g>
</defs>
<g id="surface49893">
<rect x="0" y="0" width="300" height="300" style="fill:rgb(100%,100%,100%);fill-opacity:1;stroke:none;"/>
<path style="fill:none;stroke-width:1.2;stroke-linecap:butt;stroke-linejoin:miter;stroke:rgb(0%,0%,0%);stroke-opacity:1;stroke-miterlimit:10;" d="M 51.828125 229.695312 L 35.25 206.140625 "/>
<path style="fill:none;stroke-width:1.2;stroke-linecap:butt;stroke-linejoin:miter;stroke:rgb(0%,0%,0%);stroke-opacity:1;stroke-miterlimit:10;" d="M 55.714844 223.4375 L 42.449219 204.597656 "/>
<path style="fill:none;stroke-width:1.2;stroke-linecap:butt;stroke-linejoin:miter;stroke:rgb(0%,0%,0%);stroke-opacity:1;stroke-miterlimit:10;" d="M 80.515625 227.113281 L 51.828125 229.695312 "/>
<path style="fill:none;stroke-width:1.2;stroke-linecap:butt;stroke-linejoin:miter;stroke:rgb(0%,0%,0%);stroke-opacity:1;stroke-miterlimit:10;" d="M 35.25 206.140625 L 47.359375 180.007812 "/>
<path style="fill:none;stroke-width:1.2;stroke-linecap:butt;stroke-linejoin:miter;stroke:rgb(0%,0%,0%);stroke-opacity:1;stroke-miterlimit:10;" d="M 47.359375 180.007812 L 76.046875 177.425781 "/>
<path style="fill:none;stroke-width:1.2;stroke-linecap:butt;stroke-linejoin:miter;stroke:rgb(0%,0%,0%);stroke-opacity:1;stroke-miterlimit:10;" d="M 50.835938 186.5 L 73.785156 184.433594 "/>
<path style="fill:none;stroke-width:1.2;stroke-linecap:butt;stroke-linejoin:miter;stroke:rgb(0%,0%,0%);stroke-opacity:1;stroke-miterlimit:10;" d="M 76.046875 177.425781 L 92.625 200.980469 "/>
<path style="fill:none;stroke-width:1.2;stroke-linecap:butt;stroke-linejoin:miter;stroke:rgb(0%,0%,0%);stroke-opacity:1;stroke-miterlimit:10;" d="M 76.046875 177.425781 L 88.152344 151.289062 "/>
<path style="fill:none;stroke-width:1.2;stroke-linecap:butt;stroke-linejoin:miter;stroke:rgb(0%,0%,0%);stroke-opacity:1;stroke-miterlimit:10;" d="M 92.625 200.980469 L 80.515625 227.113281 "/>
<path style="fill:none;stroke-width:1.2;stroke-linecap:butt;stroke-linejoin:miter;stroke:rgb(0%,0%,0%);stroke-opacity:1;stroke-miterlimit:10;" d="M 85.265625 200.742188 L 75.578125 221.652344 "/>
<path style="fill:none;stroke-width:1.2;stroke-linecap:butt;stroke-linejoin:miter;stroke:rgb(0%,0%,0%);stroke-opacity:1;stroke-miterlimit:10;" d="M 92.625 200.980469 L 121.3125 198.398438 "/>
<path style="fill:none;stroke-width:1.2;stroke-linecap:butt;stroke-linejoin:miter;stroke:rgb(0%,0%,0%);stroke-opacity:1;stroke-miterlimit:10;" d="M 121.3125 198.398438 L 135.65625 197.105469 "/>
<path style="fill:none;stroke-width:1.2;stroke-linecap:butt;stroke-linejoin:miter;stroke:rgb(0%,0%,100%);stroke-opacity:1;stroke-miterlimit:10;" d="M 135.65625 197.105469 L 150 195.816406 "/>
<path style="fill:none;stroke-width:1.2;stroke-linecap:butt;stroke-linejoin:miter;stroke:rgb(0%,0%,0%);stroke-opacity:1;stroke-miterlimit:10;" d="M 124.789062 204.890625 L 136.261719 203.855469 "/>
<path style="fill:none;stroke-width:1.2;stroke-linecap:butt;stroke-linejoin:miter;stroke:rgb(0%,0%,100%);stroke-opacity:1;stroke-miterlimit:10;" d="M 136.261719 203.855469 L 147.738281 202.824219 "/>
<path style="fill:none;stroke-width:1.2;stroke-linecap:butt;stroke-linejoin:miter;stroke:rgb(0%,0%,0%);stroke-opacity:1;stroke-miterlimit:10;" d="M 123.574219 191.390625 L 135.050781 190.355469 "/>
<path style="fill:none;stroke-width:1.2;stroke-linecap:butt;stroke-linejoin:miter;stroke:rgb(0%,0%,100%);stroke-opacity:1;stroke-miterlimit:10;" d="M 135.050781 190.355469 L 146.523438 189.324219 "/>
<path style=" stroke:none;fill-rule:nonzero;fill:rgb(100%,100%,100%);fill-opacity:1;" d="M 146 188.816406 L 155 188.816406 L 155 202.816406 L 146 202.816406 Z M 146 188.816406 "/>
<g style="fill:rgb(0%,0%,100%);fill-opacity:1;">
  <use xlink:href="#glyph0-1" x="146" y="199.955078"/>
</g>
<path style="fill:none;stroke-width:1.2;stroke-linecap:butt;stroke-linejoin:miter;stroke:rgb(0%,0%,0%);stroke-opacity:1;stroke-miterlimit:10;" d="M 88.152344 151.289062 L 116.839844 148.710938 "/>
<path style="fill:none;stroke-width:1.2;stroke-linecap:butt;stroke-linejoin:miter;stroke:rgb(0%,0%,0%);stroke-opacity:1;stroke-miterlimit:10;" d="M 90.414062 144.28125 L 113.367188 142.21875 "/>
<path style="fill:none;stroke-width:1.2;stroke-linecap:butt;stroke-linejoin:miter;stroke:rgb(0%,0%,0%);stroke-opacity:1;stroke-miterlimit:10;" d="M 71.574219 127.738281 L 88.152344 151.289062 "/>
<path style="fill:none;stroke-width:1.2;stroke-linecap:butt;stroke-linejoin:miter;stroke:rgb(0%,0%,0%);stroke-opacity:1;stroke-miterlimit:10;" d="M 116.839844 148.710938 L 128.949219 122.574219 "/>
<path style="fill:none;stroke-width:1.2;stroke-linecap:butt;stroke-linejoin:miter;stroke:rgb(0%,0%,0%);stroke-opacity:1;stroke-miterlimit:10;" d="M 128.949219 122.574219 L 112.371094 99.019531 "/>
<path style="fill:none;stroke-width:1.2;stroke-linecap:butt;stroke-linejoin:miter;stroke:rgb(0%,0%,0%);stroke-opacity:1;stroke-miterlimit:10;" d="M 132.832031 116.316406 L 119.570312 97.476562 "/>
<path style="fill:none;stroke-width:1.2;stroke-linecap:butt;stroke-linejoin:miter;stroke:rgb(0%,0%,0%);stroke-opacity:1;stroke-miterlimit:10;" d="M 157.636719 119.992188 L 128.949219 122.574219 "/>
<path style="fill:none;stroke-width:1.2;stroke-linecap:butt;stroke-linejoin:miter;stroke:rgb(0%,0%,0%);stroke-opacity:1;stroke-miterlimit:10;" d="M 112.371094 99.019531 L 83.683594 101.601562 "/>
<path style="fill:none;stroke-width:1.2;stroke-linecap:butt;stroke-linejoin:miter;stroke:rgb(0%,0%,0%);stroke-opacity:1;stroke-miterlimit:10;" d="M 112.371094 99.019531 L 118.425781 85.953125 "/>
<path style="fill:none;stroke-width:1.2;stroke-linecap:butt;stroke-linejoin:miter;stroke:rgb(0%,0%,100%);stroke-opacity:1;stroke-miterlimit:10;" d="M 118.425781 85.953125 L 124.480469 72.886719 "/>
<path style="fill:none;stroke-width:1.2;stroke-linecap:butt;stroke-linejoin:miter;stroke:rgb(0%,0%,0%);stroke-opacity:1;stroke-miterlimit:10;" d="M 83.683594 101.601562 L 71.574219 127.738281 "/>
<path style="fill:none;stroke-width:1.2;stroke-linecap:butt;stroke-linejoin:miter;stroke:rgb(0%,0%,0%);stroke-opacity:1;stroke-miterlimit:10;" d="M 88.621094 107.066406 L 78.933594 127.972656 "/>
<path style="fill:none;stroke-width:1.2;stroke-linecap:butt;stroke-linejoin:miter;stroke:rgb(0%,0%,100%);stroke-opacity:1;stroke-miterlimit:10;" d="M 124.480469 72.886719 L 138.824219 71.59375 "/>
<path style="fill:none;stroke-width:1.2;stroke-linecap:butt;stroke-linejoin:miter;stroke:rgb(0%,0%,0%);stroke-opacity:1;stroke-miterlimit:10;" d="M 138.824219 71.59375 L 153.167969 70.304688 "/>
<path style="fill:none;stroke-width:1.2;stroke-linecap:butt;stroke-linejoin:miter;stroke:rgb(0%,0%,100%);stroke-opacity:1;stroke-miterlimit:10;" d="M 127.953125 79.378906 L 139.429688 78.34375 "/>
<path style="fill:none;stroke-width:1.2;stroke-linecap:butt;stroke-linejoin:miter;stroke:rgb(0%,0%,0%);stroke-opacity:1;stroke-miterlimit:10;" d="M 139.429688 78.34375 L 150.90625 77.3125 "/>
<path style=" stroke:none;fill-rule:nonzero;fill:rgb(100%,100%,100%);fill-opacity:1;" d="M 120.480469 65.886719 L 129.480469 65.886719 L 129.480469 79.886719 L 120.480469 79.886719 Z M 120.480469 65.886719 "/>
<g style="fill:rgb(0%,0%,100%);fill-opacity:1;">
  <use xlink:href="#glyph0-1" x="120.480469" y="77.025391"/>
</g>
<path style="fill:none;stroke-width:1.2;stroke-linecap:butt;stroke-linejoin:miter;stroke:rgb(0%,0%,0%);stroke-opacity:1;stroke-miterlimit:10;" d="M 153.167969 70.304688 L 161.457031 82.082031 "/>
<path style="fill:none;stroke-width:1.2;stroke-linecap:butt;stroke-linejoin:miter;stroke:rgb(0%,0%,100%);stroke-opacity:1;stroke-miterlimit:10;" d="M 161.457031 82.082031 L 169.746094 93.859375 "/>
<path style="fill:none;stroke-width:1.2;stroke-linecap:butt;stroke-linejoin:miter;stroke:rgb(0%,0%,100%);stroke-opacity:1;stroke-miterlimit:10;" d="M 169.746094 93.859375 L 163.691406 106.925781 "/>
<path style="fill:none;stroke-width:1.2;stroke-linecap:butt;stroke-linejoin:miter;stroke:rgb(0%,0%,0%);stroke-opacity:1;stroke-miterlimit:10;" d="M 163.691406 106.925781 L 157.636719 119.992188 "/>
<path style="fill:none;stroke-width:1.2;stroke-linecap:butt;stroke-linejoin:miter;stroke:rgb(0%,0%,100%);stroke-opacity:1;stroke-miterlimit:10;" d="M 162.386719 93.621094 L 157.542969 104.078125 "/>
<path style="fill:none;stroke-width:1.2;stroke-linecap:butt;stroke-linejoin:miter;stroke:rgb(0%,0%,0%);stroke-opacity:1;stroke-miterlimit:10;" d="M 157.542969 104.078125 L 152.699219 114.53125 "/>
<path style=" stroke:none;fill-rule:nonzero;fill:rgb(100%,100%,100%);fill-opacity:1;" d="M 165.746094 86.859375 L 174.746094 86.859375 L 174.746094 100.859375 L 165.746094 100.859375 Z M 165.746094 86.859375 "/>
<g style="fill:rgb(0%,0%,100%);fill-opacity:1;">
  <use xlink:href="#glyph0-1" x="165.746094" y="97.998047"/>
</g>
<path style="fill:none;stroke-width:1.2;stroke-linecap:butt;stroke-linejoin:miter;stroke:rgb(0%,0%,0%);stroke-opacity:1;stroke-miterlimit:10;" d="M 157.636719 119.992188 L 165.925781 131.769531 "/>
<path style="fill:none;stroke-width:1.2;stroke-linecap:butt;stroke-linejoin:miter;stroke:rgb(0%,0%,100%);stroke-opacity:1;stroke-miterlimit:10;" d="M 165.925781 131.769531 L 174.214844 143.546875 "/>
<path style="fill:none;stroke-width:1.2;stroke-linecap:butt;stroke-linejoin:miter;stroke:rgb(0%,0%,100%);stroke-opacity:1;stroke-miterlimit:10;" d="M 174.214844 143.546875 L 188.558594 142.253906 "/>
<path style="fill:none;stroke-width:1.2;stroke-linecap:butt;stroke-linejoin:miter;stroke:rgb(0%,0%,0%);stroke-opacity:1;stroke-miterlimit:10;" d="M 188.558594 142.253906 L 202.902344 140.964844 "/>
<path style=" stroke:none;fill-rule:nonzero;fill:rgb(100%,100%,100%);fill-opacity:1;" d="M 165.214844 136.546875 L 183.214844 136.546875 L 183.214844 150.546875 L 165.214844 150.546875 Z M 165.214844 136.546875 "/>
<g style="fill:rgb(0%,0%,100%);fill-opacity:1;">
  <use xlink:href="#glyph0-1" x="165.214844" y="147.685547"/>
  <use xlink:href="#glyph0-2" x="174.191406" y="147.685547"/>
</g>
<path style="fill:none;stroke-width:1.2;stroke-linecap:butt;stroke-linejoin:miter;stroke:rgb(0%,0%,0%);stroke-opacity:1;stroke-miterlimit:10;" d="M 202.902344 140.964844 L 219.484375 164.519531 "/>
<path style="fill:none;stroke-width:1.2;stroke-linecap:butt;stroke-linejoin:miter;stroke:rgb(0%,0%,0%);stroke-opacity:1;stroke-miterlimit:10;" d="M 219.484375 164.519531 L 207.375 190.652344 "/>
<path style="fill:none;stroke-width:1.2;stroke-linecap:butt;stroke-linejoin:miter;stroke:rgb(0%,0%,0%);stroke-opacity:1;stroke-miterlimit:10;" d="M 224.421875 169.980469 L 214.734375 190.890625 "/>
<path style="fill:none;stroke-width:1.2;stroke-linecap:butt;stroke-linejoin:miter;stroke:rgb(0%,0%,0%);stroke-opacity:1;stroke-miterlimit:10;" d="M 248.171875 161.9375 L 219.484375 164.519531 "/>
<path style="fill:none;stroke-width:1.2;stroke-linecap:butt;stroke-linejoin:miter;stroke:rgb(0%,0%,0%);stroke-opacity:1;stroke-miterlimit:10;" d="M 207.375 190.652344 L 215.664062 202.429688 "/>
<path style="fill:none;stroke-width:1.2;stroke-linecap:butt;stroke-linejoin:miter;stroke:rgb(0%,0%,100%);stroke-opacity:1;stroke-miterlimit:10;" d="M 215.664062 202.429688 L 223.953125 214.207031 "/>
<path style="fill:none;stroke-width:1.2;stroke-linecap:butt;stroke-linejoin:miter;stroke:rgb(0%,0%,100%);stroke-opacity:1;stroke-miterlimit:10;" d="M 223.953125 214.207031 L 238.296875 212.917969 "/>
<path style="fill:none;stroke-width:1.2;stroke-linecap:butt;stroke-linejoin:miter;stroke:rgb(0%,0%,0%);stroke-opacity:1;stroke-miterlimit:10;" d="M 238.296875 212.917969 L 252.640625 211.625 "/>
<path style="fill:none;stroke-width:1.2;stroke-linecap:butt;stroke-linejoin:miter;stroke:rgb(0%,0%,100%);stroke-opacity:1;stroke-miterlimit:10;" d="M 226.214844 207.199219 L 237.691406 206.167969 "/>
<path style="fill:none;stroke-width:1.2;stroke-linecap:butt;stroke-linejoin:miter;stroke:rgb(0%,0%,0%);stroke-opacity:1;stroke-miterlimit:10;" d="M 237.691406 206.167969 L 249.164062 205.132812 "/>
<path style=" stroke:none;fill-rule:nonzero;fill:rgb(100%,100%,100%);fill-opacity:1;" d="M 219.953125 207.207031 L 228.953125 207.207031 L 228.953125 221.207031 L 219.953125 221.207031 Z M 219.953125 207.207031 "/>
<g style="fill:rgb(0%,0%,100%);fill-opacity:1;">
  <use xlink:href="#glyph0-1" x="219.953125" y="218.345703"/>
</g>
<path style="fill:none;stroke-width:1.2;stroke-linecap:butt;stroke-linejoin:miter;stroke:rgb(0%,0%,0%);stroke-opacity:1;stroke-miterlimit:10;" d="M 252.640625 211.625 L 264.75 185.492188 "/>
<path style="fill:none;stroke-width:1.2;stroke-linecap:butt;stroke-linejoin:miter;stroke:rgb(0%,0%,0%);stroke-opacity:1;stroke-miterlimit:10;" d="M 264.75 185.492188 L 248.171875 161.9375 "/>
<path style="fill:none;stroke-width:1.2;stroke-linecap:butt;stroke-linejoin:miter;stroke:rgb(0%,0%,0%);stroke-opacity:1;stroke-miterlimit:10;" d="M 257.550781 187.035156 L 244.285156 168.195312 "/>
</g>
</svg>

<svg xmlns="http://www.w3.org/2000/svg" xmlns:xlink="http://www.w3.org/1999/xlink" width="300pt" height="300pt" viewBox="0 0 300 300"><defs><symbol overflow="visible"><path d="M.594 2.125V-8.47h6V2.126zm.672-.672h4.671V-7.78h-4.67zm0 0"/></symbol><symbol overflow="visible" id="a"><path d="M1.172-8.75h1.594l3.89 7.313V-8.75h1.14V0H6.204L2.328-7.313V0H1.172zm0 0"/></symbol><symbol overflow="visible" id="b"><path d="M1.172-8.75H2.36v3.594h4.296V-8.75h1.188V0H6.656v-4.172H2.36V0H1.17zm0 0"/></symbol></defs><g><path fill="#fff" d="M0 0h300v300H0z"/><path d="M51.828 229.695L35.25 206.14M55.715 223.438l-13.266-18.84M80.516 227.113l-28.688 2.582M35.25 206.14l12.11-26.132M47.36 180.008l28.687-2.582M50.836 186.5l22.95-2.066M76.047 177.426l16.578 23.554M76.047 177.426l12.105-26.137M92.625 200.98l-12.11 26.133M85.266 200.742l-9.688 20.91M92.625 200.98l28.688-2.582M121.313 198.398l14.343-1.293" stroke-width="1.2" stroke="#000" stroke-miterlimit="10" fill="none"/><path d="M135.656 197.105l14.344-1.29" stroke-width="1.2" stroke="#00f" stroke-miterlimit="10" fill="none"/><path d="M124.79 204.89l11.472-1.035" stroke-width="1.2" stroke="#000" stroke-miterlimit="10" fill="none"/><path d="M136.262 203.855l11.476-1.03" stroke-width="1.2" stroke="#00f" stroke-miterlimit="10" fill="none"/><path d="M123.574 191.39l11.477-1.035" stroke-width="1.2" stroke="#000" stroke-miterlimit="10" fill="none"/><path d="M135.05 190.355l11.473-1.03" stroke-width="1.2" stroke="#00f" stroke-miterlimit="10" fill="none"/><path d="M146 188.816h9v14h-9zm0 0" fill="#fff"/><use xlink:href="#a" x="146" y="199.955" fill="#00f"/><path d="M88.152 151.29l28.688-2.58M90.414 144.28l22.953-2.06M71.574 127.738l16.578 23.55M116.84 148.71l12.11-26.136M128.95 122.574L112.37 99.02M132.832 116.316l-13.262-18.84M157.637 119.992l-28.688 2.582M112.37 99.02l-28.686 2.582M112.37 99.02l6.056-13.067" stroke-width="1.2" stroke="#000" stroke-miterlimit="10" fill="none"/><path d="M118.426 85.953l6.054-13.066" stroke-width="1.2" stroke="#00f" stroke-miterlimit="10" fill="none"/><path d="M83.684 101.602l-12.11 26.136M88.62 107.066l-9.686 20.907" stroke-width="1.2" stroke="#000" stroke-miterlimit="10" fill="none"/><path d="M124.48 72.887l14.344-1.293" stroke-width="1.2" stroke="#00f" stroke-miterlimit="10" fill="none"/><path d="M138.824 71.594l14.344-1.29" stroke-width="1.2" stroke="#000" stroke-miterlimit="10" fill="none"/><path d="M127.953 79.38l11.477-1.036" stroke-width="1.2" stroke="#00f" stroke-miterlimit="10" fill="none"/><path d="M139.43 78.344l11.476-1.03" stroke-width="1.2" stroke="#000" stroke-miterlimit="10" fill="none"/><path d="M120.48 65.887h9v14h-9zm0 0" fill="#fff"/><use xlink:href="#a" x="120.48" y="77.025" fill="#00f"/><path d="M153.168 70.305l8.29 11.777" stroke-width="1.2" stroke="#000" stroke-miterlimit="10" fill="none"/><path d="M161.457 82.082l8.29 11.777M169.746 93.86l-6.055 13.066" stroke-width="1.2" stroke="#00f" stroke-miterlimit="10" fill="none"/><path d="M163.69 106.926l-6.053 13.066" stroke-width="1.2" stroke="#000" stroke-miterlimit="10" fill="none"/><path d="M162.387 93.62l-4.844 10.458" stroke-width="1.2" stroke="#00f" stroke-miterlimit="10" fill="none"/><path d="M157.543 104.078L152.7 114.53" stroke-width="1.2" stroke="#000" stroke-miterlimit="10" fill="none"/><path d="M165.746 86.86h9v14h-9zm0 0" fill="#fff"/><use xlink:href="#a" x="165.746" y="97.998" fill="#00f"/><path d="M157.637 119.992l8.29 11.778" stroke-width="1.2" stroke="#000" stroke-miterlimit="10" fill="none"/><path d="M165.926 131.77l8.29 11.777M174.215 143.547l14.344-1.293" stroke-width="1.2" stroke="#00f" stroke-miterlimit="10" fill="none"/><path d="M188.56 142.254l14.342-1.29" stroke-width="1.2" stroke="#000" stroke-miterlimit="10" fill="none"/><path d="M165.215 136.547h18v14h-18zm0 0" fill="#fff"/><g fill="#00f"><use xlink:href="#a" x="165.215" y="147.686"/><use xlink:href="#b" x="174.191" y="147.686"/></g><path d="M202.902 140.965l16.582 23.555M219.484 164.52l-12.11 26.132M224.422 169.98l-9.688 20.91M248.172 161.938l-28.688 2.582M207.375 190.652l8.29 11.778" stroke-width="1.2" stroke="#000" stroke-miterlimit="10" fill="none"/><path d="M215.664 202.43l8.29 11.777M223.953 214.207l14.344-1.29" stroke-width="1.2" stroke="#00f" stroke-miterlimit="10" fill="none"/><path d="M238.297 212.918l14.344-1.293" stroke-width="1.2" stroke="#000" stroke-miterlimit="10" fill="none"/><path d="M226.215 207.2l11.476-1.032" stroke-width="1.2" stroke="#00f" stroke-miterlimit="10" fill="none"/><path d="M237.69 206.168l11.474-1.035" stroke-width="1.2" stroke="#000" stroke-miterlimit="10" fill="none"/><path d="M219.953 207.207h9v14h-9zm0 0" fill="#fff"/><use xlink:href="#a" x="219.953" y="218.346" fill="#00f"/><path d="M252.64 211.625l12.11-26.133M264.75 185.492l-16.578-23.554M257.55 187.035l-13.265-18.84" stroke-width="1.2" stroke="#000" stroke-miterlimit="10" fill="none"/></g></svg>
